X:40
T: Mountain View
S: Jimmy Hogan
Z: B.Black
R: reel
M: 4/4
L: 1/8
K: D
AG|(3FED AD BDAD|(3FED AF GBAG|(3FED AD BDAD|\
AGEF G2 AG|
(3FED AD BDAD|(3FED AF GBAG|(3FED AD BDAD|\
AGEF G2 AB ||
defe d3 A|Bdef g2 fe|d3 e d=cAG|AGEF G2 AB |
defe d3 A|Bdef g2 fe|d3 e d=cAG|AGEF G2 AG ||
